X:89
T:Corney is Coming
R:reel
D:Planxty.
Z:id:hn-reel-89
M:C|
K:D
Addc defd|=cABG EFGE|Addc defg|afge fdec|
Addc defd|=cABG EFGE|Addc defg|1 afge fdd2:|2 afge fddc||
|:defg afdB|=cdef ge^ce|defg afdf|geag fddf|
afdf ~a3f|gece g2ge|defg a2af|1 geag eddA:|2 geag edd2||
<end>
<start>
